src/images/Pintrest.svg

<svg width="20" height="21" viewBox="0 0 20 21" fill="none" xmlns="http://www.w3.org/2000/svg">
<path d="M9.79664 0.71582C4.38662 0.71582 0 5.10048 0 10.5081C0 14.5168 2.41417 17.9616 5.86486 19.4785C5.83862 18.7965 5.86049 17.9747 6.03543 17.2315C6.22349 16.4359 7.295 11.8939 7.295 11.8939C7.295 11.8939 6.9801 11.2687 6.9801 10.3463C6.9801 8.89499 7.81982 7.81084 8.86946 7.81084C9.76165 7.81084 10.1903 8.47969 10.1903 9.27968C10.1903 10.1758 9.61732 11.5135 9.3243 12.7551C9.07938 13.7955 9.84475 14.6392 10.8725 14.6392C12.7269 14.6392 13.9777 12.2567 13.9777 9.43269C13.9777 7.28626 12.5301 5.6819 9.9016 5.6819C6.932 5.6819 5.07763 7.89827 5.07763 10.3726C5.07763 11.225 5.3313 11.8283 5.72491 12.2917C5.90422 12.5059 5.93046 12.5933 5.86486 12.8381C5.81675 13.0174 5.71179 13.4501 5.66368 13.625C5.59808 13.8742 5.3969 13.9616 5.17385 13.8698C3.80494 13.3102 3.16641 11.8152 3.16641 10.1278C3.16641 7.34746 5.51498 4.01197 10.1684 4.01197C13.9077 4.01197 16.37 6.71795 16.37 9.62066C16.37 13.4633 14.2314 16.331 11.0824 16.331C10.0241 16.331 9.03128 15.7583 8.69014 15.1113C8.69014 15.1113 8.12159 17.367 7.99913 17.8042C7.79357 18.5605 7.38684 19.3124 7.01509 19.9025C7.91686 20.1684 8.85208 20.3039 9.79226 20.3047C15.2023 20.3047 19.5889 15.9201 19.5889 10.5125C19.5889 5.10485 15.2067 0.71582 9.79664 0.71582Z" fill="#274C5B"/>
</svg>

<svg width="20" height="21" fill="none" xmlns="http://www.w3.org/2000/svg"><path d="M9.797.716C4.387.716 0 5.1 0 10.508c0 4.009 2.414 7.454 5.865 8.97-.026-.681-.005-1.503.17-2.247l1.26-5.337s-.315-.625-.315-1.548c0-1.451.84-2.535 1.89-2.535.892 0 1.32.669 1.32 1.469 0 .896-.573 2.234-.866 3.475-.245 1.04.52 1.884 1.549 1.884 1.854 0 3.105-2.382 3.105-5.206 0-2.147-1.448-3.751-4.076-3.751-2.97 0-4.824 2.216-4.824 4.69 0 .853.253 1.456.647 1.92.18.214.205.301.14.546-.048.18-.153.612-.201.787-.066.25-.267.337-.49.245-1.37-.56-2.008-2.055-2.008-3.742 0-2.78 2.349-6.116 7.002-6.116 3.74 0 6.202 2.706 6.202 5.609 0 3.842-2.139 6.71-5.288 6.71-1.058 0-2.05-.573-2.392-1.22 0 0-.568 2.256-.69 2.693-.206.757-.613 1.508-.985 2.099a9.85 9.85 0 0 0 2.777.402c5.41 0 9.797-4.385 9.797-9.793 0-5.407-4.382-9.796-9.792-9.796Z" fill="#274C5B"/></svg>
